X:209
U: ~ = !turn!
%%topmargin 3cm
T:Up Sligo
B:Traditional Irish Fiddle Tunes. Randy Miller and Jack Perron.
Z:Transcribed by Ralph Palmer
S:Michael Coleman
R:Jig
L:1/8
M:6/8
K:EDor
EBB {/c}BAG | FAA AFD | EBB EBB | AGF ~D3 |
EBB {/c}BAG | FAA ABc | ~d3 ~B3 | AGF ~E3 ::
Bee ede | gdd dBA | Bee ede | gdc ~d3 |
Bee ede | ~f3 dBA | ~d3 ~B3 | AGF ~E3 :|]
